!!!COM: Gaspar van Weerbeke
!!!CDT: ~1450-~1517
!!!OPR: Missa Se mieulx ne vient
!!!OTL: Kyrie
!!!OMV: 1
!!!AGN: Mass
!!!SCT: Gas0104a
!!!SCA: Gas0104a
!!!voices: 4
**kern	**text	**kern	**text	**kern	**text	**kern	**text
*part4	*part4	*part3	*part3	*part2	*part2	*part1	*part1
*staff4	*staff4	*staff3	*staff3	*staff2	*staff2	*staff1	*staff1
*I"Bassus	*	*I"Tenor	*	*I"Altus	*	*I"Superius	*
*I'B	*	*I'T	*	*I'A	*	*I'S	*
*>[A,B,C]	*>[A,B,C]	*>[A,B,C]	*>[A,B,C]	*>[A,B,C]	*>[A,B,C]	*>[A,B,C]	*>[A,B,C]
*>Kyrie1[A]	*>Kyrie1[A]	*>Kyrie1[A]	*>Kyrie1[A]	*>Kyrie1[A]	*>Kyrie1[A]	*>Kyrie1[A]	*>Kyrie1[A]
*>Christe[B]	*>Christe[B]	*>Christe[B]	*>Christe[B]	*>Christe[B]	*>Christe[B]	*>Christe[B]	*>Christe[B]
*>Kyrie2[C]	*>Kyrie2[C]	*>Kyrie2[C]	*>Kyrie2[C]	*>Kyrie2[C]	*>Kyrie2[C]	*>Kyrie2[C]	*>Kyrie2[C]
*>A	*>A	*>A	*>A	*>A	*>A	*>A	*>A
*clefF4	*	*clefGv2	*	*clefGv2	*	*clefG2	*
*k[]	*	*k[]	*	*k[]	*	*k[]	*
*M3/2	*	*M3/2	*	*M3/2	*	*M3/2	*
*omet(O)	*	*omet(O)	*	*omet(O)	*	*omet(O)	*
!!section: Kyrie I
=1	=1	=1	=1	=1	=1	=1	=1
2D	Ky-	1.r	.	2.D	Ky-	1.r	.
4BB	-ri-	.	.	.	.	.	.
4GG	.	.	.	2.G	-ri-	.	.
4BB	.	.	.	.	.	.	.
[4C	-e	.	.	.	.	.	.
=2	=2	=2	=2	=2	=2	=2	=2
8C]L	.	1.r	.	2A	.	2r	.
8BBJ	.	.	.	.	.	.	.
4AA	.	.	.	.	.	.	.
4GG	.	.	.	2.B	-e	2.d	Ky-
*lig	*edit	*	*	*	*	*	*
2G	e-	.	.	.	.	.	.
[4E	.	.	.	4G	.	[4g	-ri-
=3	=3	=3	=3	=3	=3	=3	=3
*	*	*	*	*	*edit	*	*
4E]	.	1.r	.	4B	e-	2g]	.
*Xlig	*	*	*	*	*	*	*
4C	.	.	.	4.c	.	.	.
2F	-ley-	.	.	.	.	2a	.
.	.	.	.	8B	.	.	.
.	.	.	.	4A	.	.	.
2G	-son,	.	.	4G	.	[2b	-e
.	.	.	.	[4d	-ley-	.	.
=4	=4	=4	=4	=4	=4	=4	=4
2.G	Ky-	1.r	.	4d]	.	4b]	.
.	.	.	.	2.e	.	4g	.
*	*	*	*	*	*	*	*edit
.	.	.	.	.	.	4b	e-
4.A	-ri-	.	.	.	.	4.cc	.
.	.	.	.	4f	.	.	.
8G	.	.	.	.	.	8b	.
4F	.	.	.	4f	-son,	4a	.
=5	=5	=5	=5	=5	=5	=5	=5
4E	-e	2r	.	4g	e-	4g	.
*	*	*	*	*	*	*lig	*
4D	.	.	.	4f	.	2dd	.
*lig	*	*	*	*	*	*	*
2G	e-	2r	.	4d	.	.	.
.	.	.	.	2g	.	2b	.
*	*	*	*	*	*	*Xlig	*
2A	.	2D	Ky-	.	.	.	.
*Xlig	*	*	*	*	*	*	*
.	.	.	.	4f#j	.	4a	.
!!LO:LB:g=original
=6	=6	=6	=6	=6	=6	=6	=6
*	*	*lig	*	*	*	*	*
4G	.	2.G	-ri-	4g	.	4.b	.
2E	.	.	.	4G	.	.	.
.	.	.	.	.	.	8a	.
.	.	.	.	4B	.	4g	.
4C	.	2.A	.	4c	.	4e	.
*	*	*Xlig	*	*	*	*	*
2D	-ley-	.	.	2A	-ley-	2f#i	-ley-
=7	=7	=7	=7	=7	=7	=7	=7
2.GG	-son,	2.B	-e,	4.G	.	2g	-son,
.	.	.	.	8F	.	.	.
.	.	.	.	2D	-son,	4r	.
*	*	*	*edit	*	*	*	*
4BB	Ky-	4B	Ky-	.	.	4g	Ky-
4.AA	-ri-	4c	-ri-	4r	.	4a	-ri-
.	.	8BL	.	[4E	Ky-	8gL	.
8BB	.	8AJ	.	.	.	8fJ	.
=8	=8	=8	=8	=8	=8	=8	=8
4.C	-e	1G	-e	8E]L	.	2e	-e
.	.	.	.	8FJ	.	.	.
.	.	.	.	4.G	.	.	.
8BB	.	.	.	.	.	.	.
1GG	.	.	.	.	.	4d	.
.	.	.	.	8A	.	.	.
.	.	.	.	4.B	.	4.dd	e-
.	.	2r	.	.	.	.	.
.	.	.	.	8A	.	8ccL	.
.	.	.	.	[4d	-ri-	8b	.
.	.	.	.	.	.	8aJ	.
=9	=9	=9	=9	=9	=9	=9	=9
2G	e-	4r	.	8d]L	.	4b	.
.	.	.	.	8c	.	.	.
.	.	4d	e-	8B	.	2g	.
.	.	.	.	8AJ	.	.	.
4.E	.	4.e	-ley-	2G	-e	.	.
.	.	.	.	.	.	8fL	.
8F	.	8d	.	.	.	8eJ	.
4.G	.	4B	.	2g	e-	4.d	.
.	.	[4d	.	.	.	.	.
8F	.	.	.	.	.	8e	.
!!LO:LB:g=original
=10	=10	=10	=10	=10	=10	=10	=10
4D	.	4d]	.	4f	-ley-	4f	.
2G	-ley-	4B	.	4d	.	4.g	-ley-
.	.	4d	.	4B	.	.	.
.	.	.	.	.	.	8a	.
4E	.	4e	.	4G	.	2b	.
2F	.	2c	.	2A	-son,	.	.
.	.	.	.	.	.	4a	.
=11	=11	=11	=11	=11	=11	=11	=11
*	*	*lig	*	*	*	*	*
1G	-son,	2B	-son,	4.G	Ky-	2b	-son,
.	.	.	.	8A	.	.	.
.	.	2G	.	8BL	.	4.b	Ky-
*	*	*Xlig	*	*	*	*	*
.	.	.	.	8cJ	.	.	.
.	.	.	.	4.d	-ri-	.	.
.	.	.	.	.	.	8g	.
4D	Ky-	2r	.	.	.	4a	.
.	.	.	.	8c	.	.	.
4G	.	.	.	4B	.	4b	.
=12	=12	=12	=12	=12	=12	=12	=12
4F	.	1.r	.	4A	-e	4cc	-ri-
2D	-ri-	.	.	4.B	e-	4dd	.
.	.	.	.	.	.	2b	-e,
.	.	.	.	8A	.	.	.
4BB	.	.	.	2G	-ley-	.	.
2AA	.	.	.	.	.	2r	.
.	.	.	.	4F#i	.	.	.
=13	=13	=13	=13	=13	=13	=13	=13
*col	*	*	*	*	*	*	*Xedit
[1.GG	-e	1.r	.	2G	-son,	2r	.
.	.	.	.	4D	e-	4r	.
.	.	.	.	4.E	.	4.g	e-
.	.	.	.	8D	.	8aL	.
.	.	.	.	[4G	.	8b	.
.	.	.	.	.	.	8ccJ	.
!!LO:LB:g=original
=14	=14	=14	=14	=14	=14	=14	=14
2GG]	.	4.G	e-	8G]L	.	2dd	.
*Xcol	*Xedit	*	*	*	*	*	*
.	.	.	.	8AJ	.	.	.
.	.	.	.	4B	.	.	.
.	.	8A	.	.	.	.	.
4r	.	8BL	.	4G	.	4b	.
.	.	8cJ	.	.	.	.	.
4D	e-	2d	-ley-	4.D	-ley-	2a	.
4BB	.	.	.	.	.	.	.
.	.	.	.	8F#j	.	.	.
4GG	.	4B	.	4G	.	[4g	.
=15	=15	=15	=15	=15	=15	=15	=15
2D	.	2A	-son,	2A	-son,	8g]L	.
.	.	.	.	.	.	8eJ	.
.	.	.	.	.	.	4f#i	.
*	*	*	*	*	*Xedit	*	*
4GG	.	2r	.	4.G	e-	4g	.
*lig	*	*	*	*	*	*	*
2BB	.	.	.	.	.	4d	.
.	.	.	.	8A	.	.	.
*	*	*	*Xedit	*	*	*	*
.	.	2G	e-	4B	.	4g	.
[4AA	.	.	.	[4c	.	[4a	.
=16	=16	=16	=16	=16	=16	=16	=16
4AA]	.	4F#i	.	8c]L	.	8a]L	.
*Xlig	*	*	*	*	*	*	*
.	.	.	.	8AJ	.	8gJ	.
*	*	*	*	*	*	*	*
4.GG	.	4G	.	2d	-ley-	4.b	-ley-
.	.	4D	.	.	.	.	.
8FF#i	.	.	.	.	.	8a	.
4GG	.	4G	.	4B	.	2g	.
2D	-ley-	2A	-ley-	2A	.	.	.
.	.	.	.	.	.	4f#i	.
=17	=17	=17	=17	=17	=17	=17	=17
1.GGl	-son.	1.Gl	-son.	1.Bl 1.dl	-son.	1.gl	-son.
!!LO:PB:g=original
=18||	=18||	=18||	=18||	=18||	=18||	=18||	=18||
*>B	*>B	*>B	*>B	*>B	*>B	*>B	*>B
*M2/2	*	*M2/2	*	*M2/2	*	*M2/2	*
*omet(C|)	*	*omet(C|)	*	*omet(C|)	*	*omet(C|)	*
!!section: Christe
1r	.	1r	.	1r	.	1g	Chri-
=19	=19	=19	=19	=19	=19	=19	=19
1r	.	1r	.	1G	Chri-	2g	-ste
*	*	*	*	*	*	*	*edit
.	.	.	.	.	.	2d	e-
=20	=20	=20	=20	=20	=20	=20	=20
1r	.	1r	.	2G	-ste	2e	-ley-
*	*	*	*	*	*edit	*	*
.	.	.	.	2D	e-	2f	.
=21	=21	=21	=21	=21	=21	=21	=21
1r	.	1r	.	2E	-ley-	4.g	.
.	.	.	.	.	.	8f	.
.	.	.	.	2F	.	2d	-son,
=22	=22	=22	=22	=22	=22	=22	=22
1r	.	1r	.	4.G	.	4r	.
.	.	.	.	.	.	4g	Chri-
.	.	.	.	8F	.	.	.
*	*	*	*	*	*	*lig	*
.	.	.	.	2D	-son,	2a	.
=23	=23	=23	=23	=23	=23	=23	=23
1r	.	1r	.	4r	.	2b	.
*	*	*	*	*	*	*Xlig	*
.	.	.	.	4G	Chri-	.	.
.	.	.	.	2A	.	4a	.
.	.	.	.	.	.	4cc	.
!!LO:LB:g=original
=24	=24	=24	=24	=24	=24	=24	=24
1r	.	1r	.	2B	.	4b	.
.	.	.	.	.	.	4g	.
.	.	.	.	4A	.	4cc	.
.	.	.	.	4c	.	8bL	.
.	.	.	.	.	.	8aJ	.
=25	=25	=25	=25	=25	=25	=25	=25
1r	.	1r	.	4B	.	2g	-ste
.	.	.	.	4G	.	.	.
.	.	.	.	4c	.	2r	.
.	.	.	.	8BL	.	.	.
.	.	.	.	8AJ	.	.	.
=26	=26	=26	=26	=26	=26	=26	=26
1r	.	1r	.	2G	-ste	4.dd	e-
.	.	.	.	.	.	8cc	.
.	.	.	.	[2d	e-	8bL	.
.	.	.	.	.	.	8aJ	.
.	.	.	.	.	.	4b	.
=27	=27	=27	=27	=27	=27	=27	=27
1r	.	1r	.	4d]	.	4a	.
.	.	.	.	4B	.	2g	-ley-
.	.	.	.	2A	-ley-	.	.
.	.	.	.	.	.	4f#i	.
=28	=28	=28	=28	=28	=28	=28	=28
1r	.	1r	.	1G	-son,	2g	-son,
.	.	.	.	.	.	2r	.
=29	=29	=29	=29	=29	=29	=29	=29
1r	.	1r	.	1r	.	2g	Chri-
.	.	.	.	.	.	2a	.
=30	=30	=30	=30	=30	=30	=30	=30
2G	Chri-	1r	.	1r	.	4g	.
.	.	.	.	.	.	2e	.
2A	.	.	.	.	.	.	.
.	.	.	.	.	.	8dL	.
.	.	.	.	.	.	8cJ	.
!!LO:LB:g=original
=31	=31	=31	=31	=31	=31	=31	=31
4G	.	1r	.	1r	.	2B	-ste
2E	.	.	.	.	.	.	.
.	.	.	.	.	.	4r	.
8DL	.	.	.	.	.	4A	e-
8CJ	.	.	.	.	.	.	.
=32	=32	=32	=32	=32	=32	=32	=32
*	*	*	*	*	*	*lig	*
2BB	-ste,	1r	.	2d	Chri-	2B	-ley-
2r	.	.	.	2e	.	2c	.
=33	=33	=33	=33	=33	=33	=33	=33
*	*edit	*	*	*	*	*Xlig	*
2D	Chri-	1r	.	4d	.	2d	-son,
.	.	.	.	2B	.	.	.
2E	.	.	.	.	.	2r	.
.	.	.	.	4G	.	.	.
=34	=34	=34	=34	=34	=34	=34	=34
4D	.	1r	.	4A	.	1r	.
2BB	.	.	.	4B	.	.	.
.	.	.	.	2G	-ste	.	.
4GG	.	.	.	.	.	.	.
=35	=35	=35	=35	=35	=35	=35	=35
4AA	.	1r	.	4r	.	1r	.
4BB	.	.	.	2d	e-	.	.
2GG	-ste	.	.	.	.	.	.
.	.	.	.	8cL	.	.	.
.	.	.	.	8BJ	.	.	.
=36	=36	=36	=36	=36	=36	=36	=36
4r	.	1r	.	2A	.	1r	.
2D	e-	.	.	.	.	.	.
.	.	.	.	2d	-ley-	.	.
8CL	.	.	.	.	.	.	.
8BBJ	.	.	.	.	.	.	.
=37	=37	=37	=37	=37	=37	=37	=37
4.AA	.	1r	.	4c	.	1r	.
.	.	.	.	4.A	.	.	.
8BB	.	.	.	.	.	.	.
4C	.	.	.	.	.	.	.
.	.	.	.	8G	.	.	.
[4D	-ley-	.	.	4F	.	.	.
!!LO:LB:g=original
=38	=38	=38	=38	=38	=38	=38	=38
4D]	.	1r	.	2E	.	1r	.
4C	.	.	.	.	.	.	.
*lig	*	*	*	*	*	*	*
2D	.	.	.	2D	-son,	.	.
=39	=39	=39	=39	=39	=39	=39	=39
2F	.	1r	.	4r	.	1r	.
.	.	.	.	2d	e-	.	.
[2E	.	.	.	.	.	.	.
.	.	.	.	8cL	.	.	.
.	.	.	.	8BJ	.	.	.
=40	=40	=40	=40	=40	=40	=40	=40
2E]	.	1r	.	8cL	.	1r	.
*Xlig	*	*	*	*	*	*	*
.	.	.	.	8B	.	.	.
.	.	.	.	8A	.	.	.
.	.	.	.	8GJ	.	.	.
4D	.	.	.	4F	.	.	.
4C	.	.	.	[4A	-ley-	.	.
=41	=41	=41	=41	=41	=41	=41	=41
4D	.	1r	.	4A]	.	4r	.
4BB	.	.	.	4G	.	2g	Chri-
2AA	.	.	.	2A	-son,	.	.
.	.	.	.	.	.	4f#j	.
=42	=42	=42	=42	=42	=42	=42	=42
2GG	-son,	1r	.	2r	.	2g	.
2r	.	.	.	4r	.	4a	.
.	.	.	.	[4A	Chri-	[4cc	.
=43	=43	=43	=43	=43	=43	=43	=43
2r	.	1r	.	4A]	.	4cc]	.
.	.	.	.	4F	.	4dd	.
2GG	Chri-	.	.	2G	-ste	2b	.
=44	=44	=44	=44	=44	=44	=44	=44
4AA	.	1r	.	4r	.	2a	-ste,
2C	.	.	.	2A	e-	.	.
.	.	.	.	.	.	2r	.
4D	.	.	.	8GL	.	.	.
.	.	.	.	8FJ	.	.	.
!!LO:LB:g=original
=45	=45	=45	=45	=45	=45	=45	=45
*lig	*	*	*	*	*	*	*
2BB	-ste,	1r	.	2G	-ley-	2dd	Chri-
2AA	.	.	.	2A	-son,	4cc	.
*Xlig	*	*	*	*	*	*	*
.	.	.	.	.	.	[4a	.
=46	=46	=46	=46	=46	=46	=46	=46
2D	Chri-	1r	.	2r	.	4a]	.
.	.	.	.	.	.	8gL	.
.	.	.	.	.	.	8fJ	.
4C	.	.	.	4r	.	2e	-ste
[4AA	.	.	.	[4A	e-	.	.
=47	=47	=47	=47	=47	=47	=47	=47
4AA]	.	1r	.	4A]	.	1r	.
2D	.	.	.	8GL	.	.	.
.	.	.	.	8FJ	.	.	.
.	.	.	.	2E	-ley-	.	.
4C#i	.	.	.	.	.	.	.
=48	=48	=48	=48	=48	=48	=48	=48
4D	-ste	1r	.	2D	-son,	4.a	e-
2F	e-	.	.	.	.	.	.
.	.	.	.	.	.	8g	.
.	.	.	.	2r	.	4f	.
4G	.	.	.	.	.	[4e	.
=49	=49	=49	=49	=49	=49	=49	=49
2E	.	1r	.	1r	.	8e]L	.
.	.	.	.	.	.	8f	.
.	.	.	.	.	.	8g	.
.	.	.	.	.	.	8aJ	.
4D	.	.	.	.	.	4f	.
[4A	-ley-	.	.	.	.	[4e	-ley-
=50	=50	=50	=50	=50	=50	=50	=50
4A]	.	1r	.	2r	.	4e]	.
8GL	.	.	.	.	.	2d	.
8FJ	.	.	.	.	.	.	.
2E	.	.	.	2G	e-	.	.
.	.	.	.	.	.	4c#i	.
=51	=51	=51	=51	=51	=51	=51	=51
2D	-son,	1r	.	4A	.	2d	-son,
.	.	.	.	2B	.	.	.
2GG	e-	.	.	.	.	2r	.
.	.	.	.	4d	.	.	.
!!LO:PB:g=original
=52	=52	=52	=52	=52	=52	=52	=52
4AA	.	1r	.	4c	.	1r	.
2BB	.	.	.	4d	.	.	.
.	.	.	.	2B	-ley-	.	.
4D	.	.	.	.	.	.	.
=53	=53	=53	=53	=53	=53	=53	=53
4C	.	1r	.	4A	.	1r	.
4D	.	.	.	2B	.	.	.
2BB	-ley-	.	.	.	.	.	.
.	.	.	.	8AL	.	.	.
.	.	.	.	8GJ	.	.	.
=54	=54	=54	=54	=54	=54	=54	=54
4C	.	1r	.	4A	.	1r	.
4BB	.	.	.	2G	.	.	.
2AA	.	.	.	.	.	.	.
.	.	.	.	4F#i	.	.	.
=55	=55	=55	=55	=55	=55	=55	=55
2GG	-son,	1r	.	2G	-son,	2d	Chri-
2r	.	.	.	2r	.	4e	.
.	.	.	.	.	.	[4d	.
=56	=56	=56	=56	=56	=56	=56	=56
2D	Chri-	1r	.	1r	.	4d]	.
.	.	.	.	.	.	8cL	.
.	.	.	.	.	.	8BJ	.
4E	.	.	.	.	.	4c	.
[4D	.	.	.	.	.	4d	.
=57	=57	=57	=57	=57	=57	=57	=57
4D]	.	1r	.	2d	Chri-	2B	-ste,
8CL	.	.	.	.	.	.	.
8BBJ	.	.	.	.	.	.	.
4C	.	.	.	4e	.	4r	.
4D	.	.	.	[4d	.	[4b	Chri-
!!LO:LB:g=original
=58	=58	=58	=58	=58	=58	=58	=58
2BB	-ste	1r	.	4d]	.	8b]L	.
.	.	.	.	.	.	8cc	.
.	.	.	.	8cL	.	8dd	.
.	.	.	.	8BJ	.	8eeJ	.
4AA	e-	.	.	4c	.	4cc	.
[4BB	-ley-	.	.	4d	.	4b	-ste
=59	=59	=59	=59	=59	=59	=59	=59
8BB]L	.	1r	.	2B	-ste-	1r	.
8C	.	.	.	.	.	.	.
8D	.	.	.	.	.	.	.
8EJ	.	.	.	.	.	.	.
4C	.	.	.	4A	-e-	.	.
4BB	.	.	.	[4B	-ley-	.	.
=60	=60	=60	=60	=60	=60	=60	=60
4.D	.	1r	.	8B]L	.	1r	.
.	.	.	.	8c	.	.	.
.	.	.	.	8d	.	.	.
8C	.	.	.	8eJ	.	.	.
4AA	.	.	.	4c	.	.	.
4BB	.	.	.	4B	.	.	.
=61	=61	=61	=61	=61	=61	=61	=61
2GG	-son,-	1r	.	4.d	.	2b	e-
.	.	.	.	8c	.	.	.
2r	.	.	.	4A	.	4cc	.
.	.	.	.	4B	.	4b	.
=62	=62	=62	=62	=62	=62	=62	=62
*	*	*	*	*	*	*	*Xedit
1r	.	1r	.	2G	-son,	4.dd	-ley-
.	.	.	.	.	.	8cc	.
.	.	.	.	4r	.	4a	.
.	.	.	.	[4g	e-	4b	.
=63	=63	=63	=63	=63	=63	=63	=63
2r	.	1r	.	8g]L	.	4.g	.
.	.	.	.	8fJ	.	.	.
.	.	.	.	4e	.	.	.
.	.	.	.	.	.	8a	.
4r	.	.	.	4.d	-ley-	2b	.
4G	-e-	.	.	.	.	.	.
.	.	.	.	8G	.	.	.
!!LO:LB:g=original
=64	=64	=64	=64	=64	=64	=64	=64
4F	.	1r	.	4d	.	4a	.
4G	.	.	.	4B	.	2g	.
2D	-ley-	.	.	2A	-son,	.	.
.	.	.	.	.	.	4f#i	.
=65	=65	=65	=65	=65	=65	=65	=65
*	*	*	*	*	*Xedit	*	*edit
4GG	-son,	1r	.	4.G	e-	4g	-son,
*	*	*	*	*	*	*	*Xedit
2G	e-	.	.	.	.	4.d	e-
.	.	.	.	8A	.	.	.
.	.	.	.	2B	.	.	.
.	.	.	.	.	.	8eL	.
[4D	-ley-	.	.	.	.	8f#i	.
.	.	.	.	.	.	8gJ	.
=66	=66	=66	=66	=66	=66	=66	=66
4D]	.	1r	.	4A	.	4a	.
4BB	.	.	.	2G	.	4b	.
2AA	.	.	.	.	.	4.cc	.
.	.	.	.	4F#i	.	.	.
.	.	.	.	.	.	8dd	.
=67	=67	=67	=67	=67	=67	=67	=67
4GG	-son,	1r	.	8GL	-ley-	2b	-ley-
.	.	.	.	8A	.	.	.
*	*Xedit	*	*	*	*	*	*
4G	e-	.	.	8B	.	.	.
.	.	.	.	8cJ	.	.	.
4D	.	.	.	4.d	.	4a	.
[4G	-ley-	.	.	.	.	[4b	.
.	.	.	.	8G	.	.	.
=68	=68	=68	=68	=68	=68	=68	=68
8G]L	.	1r	.	4d	.	4b]	.
8F#iJ	.	.	.	.	.	.	.
4G	.	.	.	4B	.	2g	.
2D	.	.	.	2A	.	.	.
.	.	.	.	.	.	4f#i	.
=69	=69	=69	=69	=69	=69	=69	=69
1GGl	-son.	1r	.	1Gl	-son.	1gl	-son.
!!LO:LB:g=original
=70||	=70||	=70||	=70||	=70||	=70||	=70||	=70||
*>C	*>C	*>C	*>C	*>C	*>C	*>C	*>C
*M3/2	*	*M3/2	*	*M3/2	*	*M3/2	*
*omet(O)	*	*omet(O)	*	*omet(O)	*	*omet(O)	*
!!section: Kyrie II
*	*	*	*	*	*	*lig	*
1G	Ky-	1.r	.	2.d	Ky-	2g	Ky-
.	.	.	.	.	.	2b	.
*	*	*	*	*	*	*Xlig	*
.	.	.	.	8cL	.	.	.
.	.	.	.	8BJ	.	.	.
2F	-ri-	.	.	2A	-ri-	2cc	-ri-
=71	=71	=71	=71	=71	=71	=71	=71
*	*	*lig	*	*	*	*	*
2G	.	2G	Ky-	4G	-e	4b	-e
*	*	*	*	*	*edit	*	*edit
.	.	.	.	4.B	e-	2dd	e-
2GG	-e	2B	.	.	.	.	.
*	*	*Xlig	*	*	*	*	*
.	.	.	.	8A	.	.	.
.	.	.	.	4G	.	8ccL	.
.	.	.	.	.	.	8bJ	.
2AA	.	2c	-ri-	4E	.	2a	.
.	.	.	.	4F	.	.	.
=72	=72	=72	=72	=72	=72	=72	=72
4r	.	4B	.	2G	-ley-	4g	.
*	*edit	*	*	*	*	*	*
4.GG	e-	2d	-e	.	.	4.b	-ley-
.	.	.	.	2D	-son,	.	.
8AAL	.	.	.	.	.	8a	.
8BB	.	8cL	.	.	.	4g	-son,
8CJ	.	8BJ	.	.	.	.	.
*	*	*	*edit	*	*	*	*
2D	.	2A	e-	4r	.	4r	.
.	.	.	.	4d	Ky-	4f	Ky-
=73	=73	=73	=73	=73	=73	=73	=73
4E	.	4G	.	4B	-ri-	4e	-ri-
4.G	-ley-	4.B	-ley-	4G	-e_e-	2d	-e
.	.	.	.	4.d	-ley-	.	.
8F	.	8A	.	.	.	.	.
4E	.	4G	-son,	.	.	4dd	e-
.	.	.	.	8e	.	.	.
2D	-son,	4.F	Ky-	2f	-son,	2dd	-ley-
.	.	8D	.	.	.	.	.
!!LO:PB:g=original
=74	=74	=74	=74	=74	=74	=74	=74
4AA	Ky-	4E	-ri-	2r	.	4cc#j	.
4.BB	.	4D	-e	.	.	2dd	-son,
.	.	4d	e-	2f	Ky-	.	.
8C	.	.	.	.	.	.	.
4D	.	2d	-ley-	.	.	4a	Ky-
2E	-ri-	.	.	2e	-ri-	4g	.
.	.	4c#i	.	.	.	4e	.
=75	=75	=75	=75	=75	=75	=75	=75
2D	-e	1d	-son,	4A	.	4.f	-ri-
.	.	.	.	2d	-e	.	.
.	.	.	.	.	.	8g	.
4F	.	.	.	.	.	4a	.
4G	e-	.	.	4B-i	.	4b-i	-e
4F	.	2r	.	4c	.	4a	.
4G	.	.	.	4B-i	.	4b-i	.
=76	=76	=76	=76	=76	=76	=76	=76
1D	-ley-	2.f	e-	4d	.	4a	.
.	.	.	.	4D	e-	2dd	e-
.	.	.	.	4.F	-ley-	.	.
.	.	4d	.	.	.	4b	.
.	.	.	.	8G	.	.	.
2AA	-son,	2e	-ley-	2A	.	8ccL	.
.	.	.	.	.	.	8b	.
.	.	.	.	.	.	8a	.
.	.	.	.	.	.	8gJ	.
=77	=77	=77	=77	=77	=77	=77	=77
2r	.	2d	-son,	2D	-son,	4.f	-ley-
.	.	.	.	.	.	8g	.
1D	e-	4f	Ky-	4r	.	4a	.
.	.	4f	-ri-	4D	e-	2d	-son,
.	.	4f	-e	4.F	-ley-	.	.
.	.	4f	e-	.	.	4dd	e-
.	.	.	.	8G	.	.	.
=78	=78	=78	=78	=78	=78	=78	=78
4AA	-ley-	4e	.	4A	.	4cc	-ley-
4BB	.	2d	-ley-	4F	.	2b	.
4GG	.	.	.	4G	.	.	.
4AA	.	4c	.	4E	-son,	2a	.
2E	-son,	2B	-son,	4r	.	.	.
.	.	.	.	4B	Ky-	4g	.
!!LO:LB:g=original
=79	=79	=79	=79	=79	=79	=79	=79
4.F	Ky-	2r	.	2A	.	2a	-son,
8D	.	.	.	.	.	.	.
4E	.	2r	.	4G	.	4r	.
2G	-ri-	.	.	4B	-ri-	4.dd	Ky-
.	.	4r	.	2A	.	.	.
.	.	.	.	.	.	8b	.
4F	.	4A	Ky-	.	.	4cc	.
=80	=80	=80	=80	=80	=80	=80	=80
2G	-e	4G	.	4B	.	4b	-ri-
.	.	4B	.	2.d	-e	8aL	.
.	.	.	.	.	.	8gJ	.
2D	e-	2A	-ri-	.	.	4.f	-e
.	.	.	.	.	.	8e	.
2E	.	2G	-e	4B	.	4.g	e-
.	.	.	.	4G	.	.	.
.	.	.	.	.	.	8e	.
=81	=81	=81	=81	=81	=81	=81	=81
4D	.	1d	e-	2A	e-	4f	.
2F	-ley-	.	.	.	.	2a	-ley-
.	.	.	.	4F	.	.	.
4D	.	.	.	4.A	-ley-	8gL	.
.	.	.	.	.	.	8fJ	.
2A	.	2c	.	.	.	2e	.
.	.	.	.	8B	.	.	.
.	.	.	.	4c	.	.	.
=82	=82	=82	=82	=82	=82	=82	=82
2D	-son,	2.d	-ley-	2A	.	4d	-son,
.	.	.	.	.	.	4.f	e-
2r	.	.	.	4D	-son,	.	.
.	.	.	.	.	.	8gL	.
.	.	8cL	.	4.F	e-	8a	.
.	.	8BJ	.	.	.	8bJ	.
2F	e-	2A	.	.	.	4.cc	-ley-
.	.	.	.	8GL	.	.	.
.	.	.	.	8A	.	.	.
.	.	.	.	8BJ	.	8b	.
!!LO:LB:g=original
=83	=83	=83	=83	=83	=83	=83	=83
4E	.	1.e	-son,	4.c	-ley-	1g	-son,
4.C	-ley-	.	.	.	.	.	.
.	.	.	.	8B	.	.	.
.	.	.	.	4.G	.	.	.
8DL	.	.	.	.	.	.	.
8E	.	.	.	.	.	.	.
8FJ	.	.	.	8A	.	.	.
4G	.	.	.	4B	.	2r	.
4A	.	.	.	4c	.	.	.
=84	=84	=84	=84	=84	=84	=84	=84
*	*	*lig	*Xedit	*	*	*	*
*	*	*col	*	*	*	*	*
2E	-son,	1e	e-	4B	.	4.g	e-
.	.	.	.	2G	-son,	.	.
.	.	.	.	.	.	8a	.
4r	.	.	.	.	.	4b	.
4C	e-	.	.	4r	.	2cc	.
2G	-ley-	[2d	.	2g	e-	.	.
.	.	.	.	.	.	4b	.
=85	=85	=85	=85	=85	=85	=85	=85
4D	.	2d]	.	4f	.	4a	.
4G	-son,	.	.	4g	.	2b	.
4r	.	1c	.	2e	.	.	.
*	*	*Xcol	*	*	*	*	*
*	*Xedit	*Xlig	*	*	*	*	*
4A	e-	.	.	.	.	4a	.
4E	.	.	.	4g	.	4g	.
*	*	*	*	*	*	*	*Xedit
4F	.	.	.	4f	.	[4a	-ley-
=86	=86	=86	=86	=86	=86	=86	=86
*	*	*	*	*	*Xedit	*	*
2G	-ley-	2B	-ley-	2d	-ley-	4a]	.
.	.	.	.	.	.	4g	.
4D	.	4A	.	8dL	.	4f	.
.	.	.	.	8BJ	.	.	.
4E	.	4G	.	4c	.	2g	.
2D	.	2A	.	2d	.	.	.
.	.	.	.	.	.	4f#i	.
=87	=87	=87	=87	=87	=87	=87	=87
1.GGl	-son.	1.Gl	-son.	1.dl	-son.	1.gl	-son.
==	==	==	==	==	==	==	==
*-	*-	*-	*-	*-	*-	*-	*-
!!!system-decoration: [*]
!!!RDF**kern: j = editorial accidental, optional, paren up
!!!RDF**kern: i = editorial accidental
!!!RDF**kern: l = terminal breve
!!!PTL: Gaspar van Weerbeke: Collected Works. I. Masses, Part 1
!!!ISBN: 978-1-59551-515-5
!!!PPR: American Institute of Musicology
!!!PC#: Corpus Mensurabilis Musicae 106/I.1
!!!PDT: 2016
!!!PED: Pavanello, Agnese
!!!YEC: Copyright 2014, Pavanello, Agnese
!!!YEM: CC-BY-NC 4.0 (https://creativecommons.org/licenses/by-nc/4.0/legalcode)
!!!EED: Mair-Gruber, Roland
!!!EEV: 2021/11/07
!!!title: @{OPR} &mdash; @{OTL}
!!!muse2ps: C^@{COM}^i2I150v90,90,90,120c122z18l2700t130
